**kern	**kern	**dynam
*part1	*part1	*part1
*staff2	*staff1	*
*I"Piano	*	*
*clefF4	*clefG2	*
*k[b-e-a-]	*k[b-e-a-]	*
=1	=1	=1
*	*^	*
8CCL	2.g-X	4re	.
8GG-X	.	.	.
8CJ	.	8re	.
8G-XL	.	8r	.
8B-	.	4r	.
8e-J>	.	.	.
*	*v	*v	*
=	=	=
!	!LO:TX:b:t=cresc.	!
8FFFL	2.f	[ mf
8FF	.	.
8AAn	.	.
8C	.	.
8F	.	.
8AnJ	.	.
=	=	=
2.r	8cL	.
.	8e-	.
.	8f	.
.	8an	.
.	8cc	.
.	8ee-J	.
=	=	=
[2.F [2.c [2.e-	[2.f [2.an [2.cc [2.ff	ff
=	=	=
2.F] 2.c] 2.e-]	2f] 2a] 2cc] 2ff]	.
.	4f#X 4ff#X	.
=	=	=
8BBB-L 8BB-	4g 4b- 4ee- 4gg	f
8BB-	.	p <
8GJ	8r	.
8B-L	8rg	.
8e->	4rg	.
8b-J>	.	[[
*clefG2	*	*
=	=	=
2.B- 2.g	2.b- 2.ee- 2.bb-	mf
=	=	=
*-	*-	*-
!!!system-decoration: {(s1,s2)}
!!!RDF**kern: > = above
